images/icon/group2.svg

<svg width="40" height="52" viewBox="0 0 40 52" fill="none" xmlns="http://www.w3.org/2000/svg">
<path fill-rule="evenodd" clip-rule="evenodd" d="M17.1136 3.36933H16.977C16.7671 3.35662 16.5571 3.35153 16.3471 3.34645H16.3471H16.3269H15.8918C15.4946 3.34645 15.0898 3.35662 14.6876 3.37696C14.6573 3.37475 14.6269 3.37475 14.5966 3.37696C10.9522 3.58345 7.38171 4.49433 4.08049 6.05974L3.6479 6.26825V28.4094L4.65979 28.0661C5.54773 27.7609 6.49384 27.4863 7.47285 27.232C10.1193 26.5526 12.8367 26.1915 15.568 26.1564V29.0655C15.2062 29.068 14.8546 29.0782 14.503 29.096H14.4195C12.3175 29.2113 10.2317 29.5315 8.19129 30.0521C5.60716 30.6991 3.11433 31.6705 0.771606 32.9434V4.5467C3.20469 3.12756 5.82533 2.06169 8.55557 1.38078C10.9527 0.761867 13.4169 0.444121 15.8918 0.434814H16.3193C16.8303 0.447529 17.3287 0.470415 17.7967 0.506016C19.0297 0.592591 20.2528 0.787443 21.4521 1.08834V3.95166C20.2874 3.68032 19.1032 3.50177 17.9105 3.41765C17.8863 3.4156 17.8621 3.41354 17.8379 3.41147C17.5911 3.39042 17.344 3.36933 17.1136 3.36933ZM22.1528 6.2962C22.7877 6.34451 23.4455 6.3674 24.1108 6.3674C26.7125 6.35789 29.3031 6.02565 31.8239 5.37821C34.4068 4.72878 36.8986 3.75659 39.2411 2.48438V30.375C36.8067 31.7933 34.1853 32.8591 31.4546 33.541C29.0571 34.1575 26.5931 34.4744 24.1184 34.4844C22.2433 34.4995 20.3737 34.2791 18.553 33.8283V5.7571C18.983 5.85628 19.4257 5.94782 19.876 6.02411C20.6147 6.14871 21.3939 6.24025 22.1528 6.2962ZM36.3471 6.51235L35.3352 6.8531C34.4042 7.16587 33.4657 7.44559 32.5221 7.6948C29.7749 8.40077 26.9514 8.76291 24.1158 8.77299C23.4556 8.77299 22.8485 8.75519 22.2616 8.71705L21.4546 8.66365V28.7526V31.4405L22.1477 31.5015C22.7903 31.5575 23.4531 31.5855 24.1209 31.5855C26.3544 31.576 28.5781 31.2881 30.7412 30.7285C32.5223 30.2817 34.2552 29.6591 35.9145 28.8696L36.3471 28.6611V6.51235Z" fill="#AFB1B8"/>
<path d="M2.73713 42.6472C2.59166 42.4963 2.41629 42.3778 2.22236 42.2994C2.02844 42.221 1.82029 42.1844 1.61141 42.192C1.38879 42.1891 1.16781 42.2305 0.961267 42.3141C0.771901 42.3895 0.599767 42.5028 0.455322 42.6472C0.312451 42.792 0.201292 42.9652 0.128988 43.1558C0.0496792 43.3555 0.0101425 43.5689 0.0126205 43.7839V47.5779C0.00357283 47.8453 0.0545882 48.1112 0.161874 48.356C0.251433 48.5505 0.380725 48.7238 0.541333 48.8646C0.692953 48.9923 0.870978 49.0844 1.06246 49.1342C1.24694 49.186 1.43755 49.2125 1.62911 49.213C1.84041 49.2151 2.04953 49.1699 2.24131 49.0808C2.43095 48.9978 2.60277 48.8786 2.74725 48.7298C2.88814 48.5824 3.00052 48.41 3.07865 48.2213C3.15973 48.0299 3.20105 47.824 3.20007 47.616V47.1914H2.20842V47.5296C2.21137 47.6451 2.1916 47.76 2.15024 47.8678C2.11794 47.9486 2.06877 48.0214 2.00604 48.0814C1.94461 48.131 1.87416 48.1682 1.79861 48.1907C1.73164 48.213 1.6617 48.225 1.59117 48.2263C1.50263 48.2367 1.41296 48.2233 1.33122 48.1876C1.24948 48.1518 1.17858 48.095 1.1257 48.0229C1.03222 47.8704 0.986395 47.6933 0.994154 47.5143V43.9771C0.988002 43.781 1.02969 43.5863 1.11558 43.4101C1.16706 43.33 1.2399 43.2661 1.32578 43.2256C1.41166 43.1851 1.50713 43.1698 1.60129 43.1812C1.68676 43.1782 1.7717 43.196 1.8488 43.2332C1.92591 43.2704 1.99289 43.3259 2.04399 43.3948C2.15496 43.5405 2.21298 43.72 2.20842 43.9034V44.2314H3.18995V43.8449C3.19195 43.6179 3.15073 43.3926 3.06853 43.1812C2.99527 42.9824 2.88251 42.8007 2.73713 42.6472Z" fill="#AFB1B8"/>
<path d="M8.62892 42.6039C8.31271 42.3369 7.91362 42.1894 7.50066 42.1869C7.29868 42.1877 7.09838 42.2239 6.9087 42.2937C6.71613 42.3627 6.53841 42.468 6.38505 42.6039C6.22076 42.7516 6.08968 42.9328 6.00053 43.1354C5.90063 43.3671 5.85146 43.6178 5.85634 43.8703V47.5092C5.8495 47.7652 5.89873 48.0195 6.00053 48.2543C6.09028 48.45 6.22152 48.6235 6.38505 48.7629C6.53665 48.9036 6.71468 49.0126 6.9087 49.0833C7.09838 49.1531 7.29868 49.1892 7.50066 49.1901C7.70269 49.1897 7.90307 49.1535 8.09262 49.0833C8.28995 49.0116 8.47195 48.9028 8.62892 48.7629C8.7871 48.6209 8.91454 48.4478 9.00332 48.2543C9.10512 48.0195 9.15435 47.7652 9.14751 47.5092V43.8703C9.15239 43.6178 9.10322 43.3671 9.00332 43.1354C8.91505 42.9349 8.78775 42.7542 8.62892 42.6039ZM8.16598 47.5092C8.17434 47.6062 8.16095 47.7038 8.1268 47.7949C8.09265 47.886 8.03861 47.9683 7.96866 48.0356C7.83768 48.1454 7.67251 48.2056 7.50193 48.2056C7.33135 48.2056 7.16617 48.1454 7.03519 48.0356C6.96524 47.9683 6.9112 47.886 6.87705 47.7949C6.8429 47.7038 6.82952 47.6062 6.83787 47.5092V43.8703C6.82952 43.7733 6.8429 43.6757 6.87705 43.5846C6.9112 43.4935 6.96524 43.4112 7.03519 43.3439C7.16617 43.2341 7.33135 43.1739 7.50193 43.1739C7.67251 43.1739 7.83768 43.2341 7.96866 43.3439C8.03861 43.4112 8.09265 43.4935 8.1268 43.5846C8.16095 43.6757 8.17434 43.7733 8.16598 43.8703V47.5092Z" fill="#AFB1B8"/>
<path d="M16.3673 49.1342V42.2455H15.4136L14.1614 45.892H14.1437L12.8813 42.2455H11.9377V49.1342H12.9218V44.9435H12.9395L13.9033 47.906H14.3941L15.3655 44.9435H15.3832V49.1342H16.3673Z" fill="#AFB1B8"/>
<path d="M21.9581 42.7285C21.8065 42.5585 21.6153 42.4291 21.4015 42.3521C21.1712 42.2772 20.9302 42.2411 20.6881 42.2453H19.226V49.1341H20.2075V46.4437H20.7134C21.0197 46.4576 21.3244 46.3928 21.5988 46.2555C21.822 46.1316 22.0081 45.9498 22.1377 45.7291C22.2512 45.5459 22.3277 45.342 22.3628 45.129C22.4014 44.8698 22.4192 44.6079 22.4159 44.3458C22.4255 44.015 22.3932 43.6843 22.3198 43.3617C22.2543 43.1233 22.1299 42.9055 21.9581 42.7285ZM21.4521 44.8289C21.4479 44.9537 21.4168 45.076 21.361 45.1875C21.3049 45.2934 21.2162 45.3782 21.1081 45.4291C20.9627 45.4941 20.8041 45.5237 20.6451 45.5155H20.1974V43.1735H20.7033C20.8557 43.166 21.0075 43.1957 21.146 43.26C21.2475 43.3182 21.3281 43.4072 21.3762 43.5142C21.4299 43.6353 21.4591 43.7658 21.4622 43.8982C21.4622 44.0432 21.4622 44.1957 21.4622 44.3559C21.4622 44.5161 21.4723 44.6814 21.4622 44.8289H21.4521Z" fill="#AFB1B8"/>
<path d="M26.6077 42.2455H25.8032L24.2854 49.1342H25.2669L25.5553 47.6543H26.8935L27.1819 49.1342H28.1635L26.6077 42.2455ZM25.702 46.7159L26.1852 44.2188H26.2029L26.6836 46.7159H25.702Z" fill="#AFB1B8"/>
<path d="M32.9497 46.3955H32.932L31.4496 42.2455H30.506V49.1342H31.4875V44.9918H31.5078L33.0079 49.1342H33.9312V42.2455H32.9497V46.3955Z" fill="#AFB1B8"/>
<path d="M38.9476 42.2455L38.1583 44.9842H38.1381L37.3488 42.2455H36.3091L37.6574 46.2226V49.1342H38.639V46.2226L39.9873 42.2455H38.9476Z" fill="#AFB1B8"/>
<path d="M0 51.0793H0.473058V52.4067H0.794333V51.0793H1.26486V50.8073H0V51.0793Z" fill="#AFB1B8"/>
<path d="M3.97672 50.8073L3.35693 52.4067H3.69845L3.82999 52.0431H4.46748L4.60409 52.4067H4.95319L4.31823 50.8073H3.97672ZM3.92612 51.7736L4.14368 51.1811L4.36123 51.7736H3.92612Z" fill="#AFB1B8"/>
<path d="M7.90793 51.8169H8.27727V52.0229C8.16941 52.1094 8.03576 52.1568 7.89781 52.1577C7.8333 52.1613 7.76886 52.1493 7.70988 52.1228C7.65091 52.0963 7.59911 52.0559 7.55883 52.0051C7.47402 51.8833 7.43217 51.7365 7.43993 51.5881C7.43993 51.2321 7.59424 51.0541 7.90034 51.0541C7.98091 51.046 8.06168 51.0673 8.12804 51.1139C8.19439 51.1606 8.24194 51.2295 8.26209 51.3084L8.57831 51.2473C8.51001 50.9346 8.28486 50.7769 7.90034 50.7769C7.69468 50.7714 7.4947 50.8451 7.34127 50.9829C7.26069 51.0624 7.19834 51.1587 7.15858 51.265C7.11882 51.3713 7.10261 51.485 7.11107 51.5983C7.10175 51.8171 7.17493 52.0314 7.31598 52.1984C7.39434 52.2792 7.4892 52.3419 7.59401 52.3823C7.69883 52.4227 7.8111 52.4398 7.92311 52.4323C8.17338 52.4393 8.41652 52.3481 8.60108 52.178V51.5474H7.90793V51.8169Z" fill="#AFB1B8"/>
<path d="M11.9226 50.8073H11.5988V52.4067H12.7194V52.1346H11.9226V50.8073Z" fill="#AFB1B8"/>
<path d="M15.3175 50.8073H14.9937V52.4067H15.3175V50.8073Z" fill="#AFB1B8"/>
<path d="M18.6365 51.8753L17.9813 50.8073H17.6676V52.4067H17.9686V51.3616L18.6112 52.4067H18.9325V50.8073H18.6365V51.8753Z" fill="#AFB1B8"/>
<path d="M21.6368 51.7024H22.4337V51.4303H21.6368V51.0793H22.4944V50.8073H21.313V52.4067H22.5273V52.1346H21.6368V51.7024Z" fill="#AFB1B8"/>
<path d="M28.9122 51.4379H28.2823V50.8073H27.9611V52.4067H28.2823V51.7074H28.9122V52.4067H29.2335V50.8073H28.9122V51.4379Z" fill="#AFB1B8"/>
<path d="M31.9302 51.7024H32.7296V51.4303H31.9302V51.0793H32.7903V50.8073H31.6089V52.4067H32.8206V52.1346H31.9302V51.7024Z" fill="#AFB1B8"/>
<path d="M36.0233 51.7024C36.3015 51.6592 36.4432 51.5117 36.4432 51.2574C36.4513 51.1894 36.441 51.1204 36.4134 51.0578C36.3858 50.9951 36.3419 50.9411 36.2863 50.9014C36.1415 50.8287 35.9799 50.7962 35.8183 50.8073H35.1404V52.4068H35.4617V51.738H35.5249C35.5934 51.7338 35.6619 51.746 35.7247 51.7736C35.7717 51.8026 35.8108 51.8428 35.8386 51.8906L36.1877 52.3992H36.5722L36.3774 52.0864C36.2913 51.932 36.1699 51.8004 36.0233 51.7024ZM35.6994 51.4812H35.4617V51.0794H35.7146C35.8248 51.0705 35.9357 51.0834 36.041 51.1176C36.0644 51.1382 36.0828 51.1639 36.095 51.1927C36.1072 51.2215 36.1127 51.2527 36.1113 51.284C36.1098 51.3152 36.1014 51.3458 36.0866 51.3733C36.0718 51.4008 36.051 51.4247 36.0258 51.443C35.9202 51.4754 35.8096 51.4884 35.6994 51.4812Z" fill="#AFB1B8"/>
<path d="M39.1096 51.7024H39.9064V51.4303H39.1096V51.0793H39.9697V50.8073H38.7858V52.4067H40V52.1346H39.1096V51.7024Z" fill="#AFB1B8"/>
</svg>

<svg width="40" height="52" fill="none" xmlns="http://www.w3.org/2000/svg"><path fill-rule="evenodd" clip-rule="evenodd" d="M17.114 3.37h-.137c-.21-.013-.42-.018-.63-.024h-.455c-.397 0-.802.01-1.204.031a.625.625 0 00-.091 0A28.275 28.275 0 004.08 6.06l-.432.208V28.41l1.012-.343c.888-.305 1.834-.58 2.813-.834a34.328 34.328 0 018.095-1.076v2.91a24.28 24.28 0 00-1.065.03h-.084a32.36 32.36 0 00-6.228.956 31.634 31.634 0 00-7.42 2.891V4.547A29.727 29.727 0 018.557 1.38a29.793 29.793 0 017.336-.946h.427c.511.013 1.01.035 1.478.071 1.233.087 2.456.281 3.655.582v2.864a22.624 22.624 0 00-3.614-.54c-.247-.022-.494-.043-.724-.043zm5.039 2.926c.635.049 1.293.071 1.958.071a31.467 31.467 0 007.713-.989 31.777 31.777 0 007.417-2.894v27.891a29.819 29.819 0 01-7.786 3.166 29.943 29.943 0 01-7.337.943 22.405 22.405 0 01-5.565-.656V5.758c.43.098.873.19 1.323.266a24.85 24.85 0 002.277.272zm14.194.216l-1.012.341c-.93.313-1.87.593-2.813.842a34.263 34.263 0 01-8.406 1.078c-.66 0-1.267-.018-1.854-.056l-.807-.053V31.44l.693.06a22.81 22.81 0 001.973.084 26.888 26.888 0 006.62-.857 27.764 27.764 0 005.173-1.858l.433-.209V6.512z" fill="#AFB1B8"/><path d="M2.737 42.647a1.492 1.492 0 00-1.126-.455 1.674 1.674 0 00-.65.122 1.463 1.463 0 00-.832.842c-.08.2-.119.413-.116.628v3.794c-.01.267.042.533.149.778.09.194.219.368.38.509.151.127.329.22.52.27.185.051.376.078.567.078.211.002.42-.043.612-.132a1.599 1.599 0 00.96-1.465v-.425h-.993v.339a.881.881 0 01-.058.338.608.608 0 01-.144.213.697.697 0 01-.415.145.503.503 0 01-.465-.203.899.899 0 01-.132-.509v-3.537c-.006-.196.036-.39.122-.567a.507.507 0 01.485-.229.527.527 0 01.443.214.806.806 0 01.164.508v.328h.982v-.386a1.788 1.788 0 00-.121-.664 1.562 1.562 0 00-.332-.534zM8.629 42.604a1.765 1.765 0 00-1.128-.417c-.202 0-.403.037-.592.107a1.559 1.559 0 00-.908.842c-.1.231-.15.482-.145.734v3.64c-.006.255.043.51.145.744.09.196.22.37.384.509.152.14.33.25.524.32.19.07.39.106.592.107a1.714 1.714 0 001.128-.427c.158-.142.286-.315.374-.509.102-.234.151-.489.145-.745V43.87a1.77 1.77 0 00-.145-.735 1.643 1.643 0 00-.374-.531zm-.463 4.905a.654.654 0 01-.197.527.727.727 0 01-.934 0 .651.651 0 01-.197-.527V43.87a.654.654 0 01.197-.526.727.727 0 01.934 0 .651.651 0 01.197.526v3.64zM16.367 49.134v-6.889h-.953l-1.253 3.647h-.017l-1.263-3.647h-.943v6.89h.984v-4.191h.018l.963 2.962h.491l.972-2.962h.017v4.19h.984zM21.958 42.728c-.151-.17-.343-.299-.556-.376a2.184 2.184 0 00-.714-.107h-1.462v6.89h.982v-2.691h.505c.307.014.611-.051.886-.189a1.43 1.43 0 00.539-.526c.113-.183.19-.387.225-.6.038-.26.056-.521.053-.783.01-.331-.023-.662-.096-.984a1.467 1.467 0 00-.362-.634zm-.506 2.1a.866.866 0 01-.091.36.553.553 0 01-.253.241 1.007 1.007 0 01-.463.087h-.448v-2.343h.506a.941.941 0 01.443.087.556.556 0 01.23.254c.054.121.083.252.086.384v.458c0 .16.01.325 0 .473h-.01zM26.608 42.245h-.805l-1.518 6.89h.982l.288-1.48h1.338l.289 1.48h.982l-1.556-6.89zm-.906 4.47l.483-2.496h.018l.48 2.497h-.981zM32.95 46.395h-.018l-1.482-4.15h-.944v6.89h.982v-4.143h.02l1.5 4.142h.923v-6.889h-.981v4.15zM38.948 42.245l-.79 2.74h-.02l-.79-2.74H36.31l1.348 3.978v2.911h.982v-2.911l1.348-3.977h-1.04zM0 51.08h.473v1.327h.321v-1.328h.47v-.272H0v.272zM3.977 50.807l-.62 1.6h.341l.132-.364h.637l.137.364h.35l-.636-1.6h-.341zm-.05.967l.217-.593.217.593h-.435zM7.908 51.817h.37v.206a.613.613 0 01-.38.135.404.404 0 01-.34-.153.669.669 0 01-.118-.417c0-.356.154-.534.46-.534a.337.337 0 01.362.254l.316-.06c-.068-.313-.293-.471-.678-.471a.804.804 0 00-.559.206.78.78 0 00-.23.615.873.873 0 00.205.6.776.776 0 00.607.234.96.96 0 00.678-.254v-.63h-.693v.269zM11.923 50.807h-.324v1.6h1.12v-.272h-.796v-1.328zM15.318 50.807h-.324v1.6h.324v-1.6zM18.637 51.875l-.656-1.068h-.313v1.6h.3v-1.045l.643 1.045h.322v-1.6h-.296v1.068zM21.637 51.702h.797v-.272h-.797v-.35h.857v-.273h-1.181v1.6h1.214v-.272h-.89v-.433zM28.912 51.438h-.63v-.63h-.32v1.599h.32v-.7h.63v.7h.322v-1.6h-.322v.63zM31.93 51.702h.8v-.272h-.8v-.35h.86v-.273H31.61v1.6h1.212v-.272h-.89v-.433zM36.023 51.702c.278-.043.42-.19.42-.445a.383.383 0 00-.157-.356.905.905 0 00-.468-.094h-.678v1.6h.322v-.669h.063a.431.431 0 01.2.036c.047.029.086.069.114.117l.349.508h.384l-.195-.313a1.115 1.115 0 00-.354-.384zm-.324-.22h-.237v-.403h.253a.838.838 0 01.326.039.208.208 0 01-.015.325.91.91 0 01-.327.038zM39.11 51.702h.796v-.272h-.796v-.35h.86v-.273h-1.184v1.6H40v-.272h-.89v-.433z" fill="#AFB1B8"/></svg>
